svg/folder.svg

<svg xmlns="http://www.w3.org/2000/svg" viewBox="0 0 32 32" enable-background="new 0 0 32 32"><path d="M 6 3 L 6 4 L 6 28 L 6 29 L 7 29 L 25 29 L 26 29 L 26 28 L 26 15.4375 L 27.71875 13.71875 L 28 13.40625 L 28 13 L 28 4 L 28 3 L 27 3 L 24 3 L 23 3 L 7 3 L 6 3 z M 8 5 L 22 5 L 22 13 L 22 13.40625 L 22.28125 13.71875 L 24 15.4375 L 24 27 L 8 27 L 8 5 z M 24 5 L 26 5 L 26 12.5625 L 25 13.5625 L 24 12.5625 L 24 5 z" color="#000" overflow="visible" enable-background="accumulate"/></svg>

<svg xmlns="http://www.w3.org/2000/svg" viewBox="0 0 32 32"><path d="M6 3v26h20V15.437l1.72-1.718.28-.314V3H6zm2 2h14v8.406l.28.313L24 15.436V27H8V5zm16 0h2v7.563l-1 1-1-1V5z"/></svg>
